src/assets/outline/Whatsapp.svg

<?xml version="1.0" encoding="UTF-8"?>
<svg width="24" height="24" viewBox="0 0 24 24" xmlns="http://www.w3.org/2000/svg">
 <path d="m2.0001 22.75c-0.2 0-0.39003-0.08-0.53003-0.22-0.19-0.19-0.26995-0.47-0.19995-0.73l1.26-4.71c-0.84-1.56-1.28-3.32-1.28-5.1 0-5.93 4.82-10.75 10.75-10.75 5.93 0 10.75 4.82 10.75 10.75 0 5.93-4.82 10.75-10.75 10.75-1.81 0-3.5799-0.45-5.1599-1.31l-4.64 1.29c-0.07 0.02-0.13001 0.03-0.20001 0.03zm4.94-2.87c0.13 0 0.26001 0.0401 0.38001 0.1001 1.41 0.83 3.03 1.2699 4.68 1.2699 5.1 0 9.25-4.15 9.25-9.25 0-5.1-4.15-9.25-9.25-9.25-5.1 0-9.25 4.15-9.25 9.25 0 1.63 0.42999 3.22 1.24 4.62 0.1 0.17 0.13002 0.38 0.08002 0.57l-1 3.74 3.68-1.02c0.06-0.02 0.13-0.03 0.19-0.03z"/>
 <path d="m14.74 17.76c-0.62 0-1.26-0.14-1.93-0.43-0.63-0.27-1.26-0.63-1.87-1.08-0.6-0.44-1.1899-0.94-1.7299-1.48-0.54-0.55-1.04-1.13-1.48-1.73-0.45-0.63-0.81-1.25-1.07-1.86-0.28-0.66-0.41999-1.31-0.41999-1.93 0-0.44 0.07998-0.86 0.22998-1.25 0.16-0.41 0.42001-0.78001 0.76001-1.1 0.64-0.63 1.56-0.85998 2.29-0.50998 0.25 0.11 0.46 0.29 0.62004 0.53l1.1599 1.63c0.12 0.16 0.2101 0.33 0.2801 0.5 0.08 0.2 0.13 0.40003 0.13 0.59003 0 0.26-0.0701 0.52-0.2101 0.75-0.09 0.15-0.22 0.33-0.39 0.5l-0.13 0.14c0.06 0.08 0.13 0.18 0.24 0.3 0.21 0.24 0.44 0.5 0.69 0.75 0.25 0.24 0.5 0.48 0.75 0.69 0.12 0.1 0.2201 0.18 0.3001 0.23l0.1399-0.14c0.18-0.18 0.3601-0.32 0.5401-0.41 0.33-0.21 0.8399-0.26 1.2899-0.07 0.16 0.06 0.32 0.15 0.49 0.27l1.6701 1.18c0.23 0.16 0.4099 0.38 0.5299 0.63 0.1 0.25 0.1401 0.47 0.1401 0.7 0 0.3-0.0701 0.59-0.2001 0.87-0.13 0.26-0.28 0.49-0.46 0.7-0.32 0.35-0.6899 0.61-1.0899 0.78s-0.8301 0.25-1.2701 0.25zm-5.95-10.02c-0.06 0-0.25995 0-0.50995 0.25-0.19 0.18-0.32003 0.37001-0.41003 0.58001s-0.13001 0.45001-0.13001 0.69001c0 0.42 0.09999 0.87 0.29999 1.35 0.21 0.5 0.52003 1.03 0.90003 1.56 0.39 0.53 0.83 1.06 1.32 1.55 0.49 0.48 1.0099 0.93 1.5499 1.33 0.52 0.38 1.0501 0.68 1.5801 0.91 0.76 0.33 1.4599 0.41 2.0299 0.17 0.2-0.08 0.38-0.22 0.56-0.4 0.09-0.1 0.1601-0.2 0.2201-0.33 0.03-0.07 0.0499-0.15 0.0499-0.22 0-0.02 0-0.05-0.03-0.11l-1.67-1.16c-0.07-0.05-0.14-0.09-0.2-0.11-0.04 0.02-0.0999 0.05-0.2099 0.16l-0.38 0.38c-0.29 0.29-0.75 0.37-1.12 0.24l-0.18-0.08c-0.23-0.12-0.4901-0.3-0.7801-0.55-0.28-0.24-0.5499-0.49-0.8399-0.77-0.28-0.29-0.53-0.56-0.77-0.84-0.26005-0.31-0.44005-0.56-0.56005-0.77l-0.10998-0.26c-0.03-0.1-0.04004-0.21-0.04004-0.31 0-0.28 0.10004-0.53 0.29004-0.73l0.38003-0.39001c0.11-0.11 0.15-0.16999 0.17-0.20999-0.03-0.07-0.07-0.13001-0.12-0.20001l-1.1701-1.65-0.12-0.08001z"/>
</svg>

<svg width="24" height="24" viewBox="0 0 24 24"  xmlns="http://www.w3.org/2000/svg">
<path d="M2.00014 22.7502C1.80014 22.7502 1.61011 22.6702 1.47011 22.5302C1.28011 22.3402 1.20016 22.0602 1.27016 21.8002L2.53017 17.0902C1.69017 15.5302 1.25014 13.7702 1.25014 11.9902C1.25014 6.06023 6.07014 1.24023 12.0001 1.24023C17.9301 1.24023 22.7501 6.06023 22.7501 11.9902C22.7501 17.9202 17.9301 22.7402 12.0001 22.7402C10.1901 22.7402 8.42017 22.2902 6.84017 21.4302L2.20015 22.7202C2.13015 22.7402 2.07014 22.7502 2.00014 22.7502ZM6.94014 19.8802C7.07014 19.8802 7.20015 19.9203 7.32015 19.9803C8.73015 20.8103 10.3501 21.2502 12.0001 21.2502C17.1001 21.2502 21.2501 17.1002 21.2501 12.0002C21.2501 6.90024 17.1001 2.75024 12.0001 2.75024C6.90014 2.75024 2.75014 6.90024 2.75014 12.0002C2.75014 13.6302 3.18013 15.2202 3.99013 16.6202C4.09013 16.7902 4.12015 17.0002 4.07015 17.1902L3.07015 20.9302L6.75014 19.9102C6.81014 19.8902 6.88014 19.8802 6.94014 19.8802Z" />
<path d="M14.7402 17.7603C14.1202 17.7603 13.4802 17.6203 12.8102 17.3303C12.1802 17.0603 11.5502 16.7003 10.9402 16.2503C10.3402 15.8103 9.75027 15.3103 9.21027 14.7703C8.67027 14.2203 8.17022 13.6403 7.73022 13.0403C7.28022 12.4103 6.92022 11.7903 6.66022 11.1803C6.38022 10.5203 6.24023 9.87029 6.24023 9.25029C6.24023 8.81029 6.32021 8.39029 6.47021 8.00029C6.63021 7.59029 6.89022 7.22028 7.23022 6.90028C7.87022 6.27028 8.79026 6.0403 9.52026 6.3903C9.77026 6.5003 9.98026 6.6803 10.1403 6.9203L11.3002 8.55027C11.4202 8.71027 11.5103 8.88027 11.5803 9.05027C11.6603 9.25027 11.7103 9.4503 11.7103 9.6403C11.7103 9.9003 11.6402 10.1603 11.5002 10.3903C11.4102 10.5403 11.2802 10.7203 11.1102 10.8903L10.9802 11.0303C11.0402 11.1103 11.1102 11.2103 11.2202 11.3303C11.4302 11.5703 11.6602 11.8303 11.9102 12.0803C12.1602 12.3203 12.4102 12.5603 12.6602 12.7703C12.7802 12.8703 12.8803 12.9503 12.9603 13.0003L13.1002 12.8603C13.2802 12.6803 13.4603 12.5403 13.6403 12.4503C13.9703 12.2403 14.4802 12.1903 14.9302 12.3803C15.0902 12.4403 15.2502 12.5303 15.4202 12.6503L17.0903 13.8303C17.3203 13.9903 17.5002 14.2103 17.6202 14.4603C17.7202 14.7103 17.7603 14.9303 17.7603 15.1603C17.7603 15.4603 17.6902 15.7503 17.5602 16.0303C17.4302 16.2903 17.2802 16.5203 17.1002 16.7303C16.7802 17.0803 16.4103 17.3403 16.0103 17.5103C15.6103 17.6803 15.1802 17.7603 14.7402 17.7603ZM8.79022 7.74028C8.73022 7.74028 8.53027 7.74028 8.28027 7.99028C8.09027 8.17028 7.96024 8.36029 7.87024 8.57029C7.78024 8.78029 7.74023 9.0203 7.74023 9.2603C7.74023 9.6803 7.84022 10.1303 8.04022 10.6103C8.25022 11.1103 8.56025 11.6403 8.94025 12.1703C9.33025 12.7003 9.77025 13.2303 10.2603 13.7203C10.7503 14.2003 11.2702 14.6503 11.8102 15.0503C12.3302 15.4303 12.8603 15.7303 13.3903 15.9603C14.1503 16.2903 14.8502 16.3703 15.4202 16.1303C15.6202 16.0503 15.8002 15.9103 15.9802 15.7303C16.0702 15.6303 16.1403 15.5303 16.2003 15.4003C16.2303 15.3303 16.2502 15.2503 16.2502 15.1803C16.2502 15.1603 16.2502 15.1303 16.2202 15.0703L14.5502 13.9103C14.4802 13.8603 14.4102 13.8203 14.3502 13.8003C14.3102 13.8203 14.2503 13.8503 14.1403 13.9603L13.7603 14.3403C13.4703 14.6303 13.0103 14.7103 12.6403 14.5803L12.4603 14.5003C12.2303 14.3803 11.9702 14.2003 11.6802 13.9503C11.4002 13.7103 11.1303 13.4603 10.8403 13.1803C10.5603 12.8903 10.3103 12.6203 10.0703 12.3403C9.81025 12.0303 9.63025 11.7803 9.51025 11.5703L9.40027 11.3103C9.37027 11.2103 9.36023 11.1003 9.36023 11.0003C9.36023 10.7203 9.46027 10.4703 9.65027 10.2703L10.0303 9.88029C10.1403 9.77029 10.1803 9.7103 10.2003 9.6703C10.1703 9.6003 10.1303 9.54029 10.0803 9.47029L8.91022 7.82029L8.79022 7.74028Z" />
</svg>
